svgs/lucky_bill.svg

<svg width="192" height="192" viewBox="0 0 192 192" fill="none" xmlns="http://www.w3.org/2000/svg">
<circle cx="96" cy="96" r="74" stroke="black" stroke-width="12"/>
<path d="M53.8795 98.2267H63.3664C65.9906 98.2267 68.4255 99.9143 68.8222 102.508C69.8699 109.359 66.4309 112.552 54.6595 114.851C54.1476 114.951 53.6128 114.981 53.0933 114.936C42.72 114.029 38.4375 111.178 37.0034 98.2267C36.874 83.6913 40.362 79.0634 53.3363 78.0404C53.6931 78.0122 54.0621 78.019 54.4174 78.0618C62.6516 79.0529 65.3121 81.5342 67.7774 87.8667" stroke="black" stroke-width="8" stroke-linecap="round"/>
<path d="M109 82.8632C99.7236 77.3838 94.2937 76.178 86.5541 81.0877C84.9074 82.1324 84.0376 84.0212 84.0468 85.9713C84.0511 86.8874 84.0504 87.9418 84.0454 89.1914C84.0312 92.7512 87.085 95.5279 90.6395 95.335C94.9149 95.103 98.3057 95.1546 102.053 95.401C105.143 95.6042 107.5 98.2169 107.5 101.314V105.287C107.5 107.733 106.026 109.982 103.686 110.696C95.982 113.047 90.368 112.096 83 108.835" stroke="black" stroke-width="8" stroke-linecap="round"/>
<path d="M123 81H138.5M154 81H138.5M138.5 81V112" stroke="black" stroke-width="8" stroke-linecap="round"/>
</svg>

<svg width="192" height="192" viewBox="0 0 192 192" fill="none" xmlns="http://www.w3.org/2000/svg"><circle cx="96" cy="96" r="74" stroke="#000" stroke-width="12"/><path d="M53.88 98.227h9.486c2.625 0 5.06 1.687 5.456 4.281 1.048 6.851-2.391 10.044-14.163 12.343-.511.1-1.046.13-1.566.085-10.373-.907-14.656-3.758-16.09-16.71-.129-14.535 3.359-19.163 16.333-20.186a5.501 5.501 0 0 1 1.081.022c8.235.99 10.895 3.472 13.36 9.805M109 82.863c-9.276-5.48-14.706-6.685-22.446-1.775-1.647 1.044-2.516 2.933-2.507 4.883.004.916.003 1.97-.002 3.22-.014 3.56 3.04 6.337 6.594 6.144a90.178 90.178 0 0 1 11.414.066c3.09.203 5.447 2.816 5.447 5.913v3.973c0 2.446-1.474 4.695-3.814 5.409-7.704 2.351-13.318 1.4-20.686-1.861M123 81h15.5m15.5 0h-15.5m0 0v31" stroke="#000" stroke-width="8" stroke-linecap="round"/></svg>
